X:67
T:Kesh
M:6/8
L:1/8
R:Jig
K:G
|:D|"G"~G3G>AB|"D"ABA ABd|"C"edd "G"gdd|"C"edB "D"dBA|"G"G>AG GAB|"D"A>BA ABd|"C"edd "G"gdB|"D"AGF"G"G2:|!
|:A|"G"~B3dBd|"C"ege "G"dBG|"G"~B3dBG|"D"ABA AGA|"G"~B3dBd|"C"ege "G"dBd|"C"gfg "Am"aga|"D"bgf "G"~g3:|

